packages/icons/src/azure-blueprints.svg

<svg fill="none" height="22" viewBox="0 0 22 22" width="22" xmlns="http://www.w3.org/2000/svg"><g clip-rule="evenodd" fill="#0278d5" fill-rule="evenodd"><path d="m2.23242 4.77344c0-.86295.69956-1.5625 1.5625-1.5625.86295 0 1.5625.69955 1.5625 1.5625v9.62466c-.43247-.3331-.97435-.5313-1.5625-.5313s-1.13002.1982-1.5625.5313v-9.61456c0-.00338-.00003-.00674-.0001-.0101zm-.9999 0h-.0001c0-1.41523 1.14727-2.5625 2.5625-2.5625.97391 0 1.82091.5433 2.25447 1.34336h4.96431 5.2812c2.4853 0 4.5 2.01472 4.5 4.5v3.2188 6.7187c0 .0387-.0022.0769-.0065.1145h.0065v.4143c0 1.4145-1.1452 2.5625-2.5595 2.5625-.2761 0-.5-.2239-.5-.5v-1.5913h-13.00298c-.32473 0-.63912-.0442-.9375-.127v.127c-1.41523 0-2.5625-1.1473-2.5625-2.5625 0-.1472.01241-.2915.03625-.4319-.02389-.1651-.03625-.3339-.03625-.5056v-10.70826c0-.00338.00004-.00674.0001-.0101zm1.05504 11.24296c.24105 1.1289 1.24409 1.9754 2.44486 1.9754h15.06248v-6.7187-3.2188c0-1.933-1.567-3.5-3.5-3.5h-5.2812-4.66552c.00523.06176.00827.12414.00905.18706h.00019v.03208 11.65586c0 .2762-.22386.5-.5.5s-.5-.2238-.5-.5c0-.8629-.69955-1.5625-1.5625-1.5625-.72002 0-1.32629.487-1.50736 1.1496zm16.44784 2.9754v1.0092c.4688-.1589.8379-.535.9874-1.0092z"/><path d="m12.7309 5.63818c.2761 0 .5.22386.5.5 0 .27615-.2239.5-.5.5h-.1804v.4617c.7057.20797 1.2209.86077 1.2209 1.63389 0 .03981-.0014.07931-.0041.11845.0067.01707.0125.03468.0173.05279l1.4733 5.49829.0273.1021-.0163.1044-.1949 1.2485c-.0305.1955-.1735.3547-.3646.4059-.1912.0512-.3945-.0151-.5187-.1692l-.7931-.9838-.0663-.0823-.0274-.1021-.544-2.0302h-2.1497l-.80415 3.001c-.07147.2667-.34564.425-.61238.3535-.26673-.0714-.42502-.3456-.35355-.6124l.73477-2.7421h-.60028c-.27614 0-.5-.2239-.5-.5 0-.2762.22386-.5.5-.5h.86823l.66456-2.48026c-.0915-.20897-.1423-.43984-.1423-.68257 0-.76009.4979-1.40388 1.1854-1.623v-.47259h-.2071c-.2761 0-.5-.22385-.5-.5 0-.27614.2239-.5.5-.5h.7071.5zm-.2389 6.25842-.3912-1.46c-.0108.0002-.0217.0003-.0326.0003-.27 0-.5253-.0628-.7522-.1747l-.4379 1.6344zm.5603-1.7726 1.1902 4.4419.0177.022.0044-.0279-1.1925-4.4503c-.0065.0048-.0132.0096-.0198.0143zm-.9841-2.09336c.3884 0 .7032.3148.7032.70313 0 .38832-.3148.70312-.7032.70312-.3883 0-.7031-.3148-.7031-.70312 0-.38833.3148-.70313.7031-.70313z"/></g></svg>

<svg width="22" height="22" viewBox="0 0 22 22" fill="none" xmlns="http://www.w3.org/2000/svg">
<path fill-rule="evenodd" clip-rule="evenodd" d="M2.23242 4.77344C2.23242 3.91049 2.93198 3.21094 3.79492 3.21094C4.65787 3.21094 5.35742 3.91049 5.35742 4.77344V14.3981C4.92495 14.065 4.38307 13.8668 3.79492 13.8668C3.20677 13.8668 2.6649 14.065 2.23242 14.3981V4.78354C2.23242 4.78016 2.23239 4.7768 2.23232 4.77344H2.23242ZM1.23252 4.77344H1.23242C1.23242 3.35821 2.37969 2.21094 3.79492 2.21094C4.76883 2.21094 5.61583 2.75424 6.04939 3.5543H11.0137H16.2949C18.7802 3.5543 20.7949 5.56902 20.7949 8.0543V11.2731V17.9918C20.7949 18.0305 20.7927 18.0687 20.7884 18.1063H20.7949V18.5206C20.7949 19.9351 19.6497 21.0831 18.2354 21.0831C17.9593 21.0831 17.7354 20.8592 17.7354 20.5831V18.9918H4.73242C4.40769 18.9918 4.0933 18.9476 3.79492 18.8648V18.9918C2.37969 18.9918 1.23242 17.8445 1.23242 16.4293C1.23242 16.2821 1.24483 16.1378 1.26867 15.9974C1.24478 15.8323 1.23242 15.6635 1.23242 15.4918V4.78354C1.23242 4.78016 1.23246 4.7768 1.23252 4.77344ZM2.28756 16.0164C2.52861 17.1453 3.53165 17.9918 4.73242 17.9918H19.7949V11.2731V8.0543C19.7949 6.1213 18.2279 4.5543 16.2949 4.5543H11.0137H6.34818C6.35341 4.61606 6.35645 4.67844 6.35723 4.74136H6.35742V4.77344V16.4293C6.35742 16.7055 6.13356 16.9293 5.85742 16.9293C5.58128 16.9293 5.35742 16.7055 5.35742 16.4293C5.35742 15.5664 4.65787 14.8668 3.79492 14.8668C3.0749 14.8668 2.46863 15.3538 2.28756 16.0164ZM18.7354 18.9918V20.001C19.2042 19.8421 19.5733 19.466 19.7228 18.9918H18.7354Z" fill="#0278D5"/>
<path fill-rule="evenodd" clip-rule="evenodd" d="M12.7309 5.63818C13.007 5.63818 13.2309 5.86204 13.2309 6.13818C13.2309 6.41433 13.007 6.63818 12.7309 6.63818H12.5505L12.5505 7.09988C13.2562 7.30785 13.7714 7.96065 13.7714 8.73377C13.7714 8.77358 13.77 8.81308 13.7673 8.85222C13.774 8.86929 13.7798 8.8869 13.7846 8.90501L15.2579 14.4033L15.2852 14.5054L15.2689 14.6098L15.074 15.8583C15.0435 16.0538 14.9005 16.213 14.7094 16.2642C14.5182 16.3154 14.3149 16.2491 14.1907 16.095L13.3976 15.1112L13.3313 15.0289L13.3039 14.9268L12.7599 12.8966L10.6102 12.8966L9.80605 15.8976C9.73458 16.1643 9.46041 16.3226 9.19367 16.2511C8.92694 16.1797 8.76865 15.9055 8.84012 15.6387L9.57489 12.8966L8.97461 12.8966C8.69847 12.8966 8.47461 12.6727 8.47461 12.3966C8.47461 12.1204 8.69847 11.8966 8.97461 11.8966H9.84284L10.5074 9.41634C10.4159 9.20737 10.3651 8.9765 10.3651 8.73377C10.3651 7.97368 10.863 7.32989 11.5505 7.11077L11.5505 6.63818H11.3434C11.0673 6.63818 10.8434 6.41433 10.8434 6.13818C10.8434 5.86204 11.0673 5.63818 11.3434 5.63818H12.0505H12.5505H12.7309ZM12.492 11.8966L12.1008 10.4366C12.09 10.4368 12.0791 10.4369 12.0682 10.4369C11.7982 10.4369 11.5429 10.3741 11.316 10.2622L10.8781 11.8966L12.492 11.8966ZM13.0523 10.124L14.2425 14.5659L14.2602 14.5879L14.2646 14.56L13.0721 10.1097C13.0656 10.1145 13.0589 10.1193 13.0523 10.124ZM12.0682 8.03064C12.4566 8.03064 12.7714 8.34544 12.7714 8.73377C12.7714 9.12209 12.4566 9.43689 12.0682 9.43689C11.6799 9.43689 11.3651 9.12209 11.3651 8.73377C11.3651 8.34544 11.6799 8.03064 12.0682 8.03064Z" fill="#0278D5"/>
</svg>
